modules/coreui-icons-free/icons/share-all.svg

<!-- Generated by IcoMoon.io -->
<svg version="1.1" xmlns="http://www.w3.org/2000/svg" width="24" height="24" viewBox="0 0 24 24">
<title>share-all</title>
<path d="M11.387 0.758h-1.986v4.125h-2.276c-2.57 0.003-4.784 1.522-5.795 3.712l-0.016 0.040c-0.355 0.697-0.564 1.519-0.564 2.391 0 0.005 0 0.010 0 0.015v-0.001 12.219h2.444l2.325-8.332c0.488-1.694 2.023-2.913 3.843-2.918h0.039v4.125h1.958l7.701-7.701zM10.901 14.47v-3.962h-1.538c-2.505 0.006-4.616 1.683-5.279 3.976l-0.010 0.039-1.825 6.539v-10.022c0-0.003-0-0.007-0-0.011 0-0.633 0.152-1.23 0.422-1.758l-0.010 0.022 0.014-0.029c0.784-1.711 2.48-2.878 4.449-2.88h3.776v-3.989l6.038 6.038z"></path>
<path d="M15.512 0.727h-2.035l7.705 7.705-7.67 7.67h1.973l7.701-7.701-7.674-7.674z"></path>
</svg>

<svg xmlns="http://www.w3.org/2000/svg" width="24" height="24" viewBox="0 0 24 24"><path d="M11.387.758H9.401v4.125H7.125A6.387 6.387 0 001.33 8.595l-.016.04a5.284 5.284 0 00-.564 2.391v.015-.001 12.219h2.444l2.325-8.332a4.012 4.012 0 013.843-2.918h.039v4.125h1.958l7.701-7.701zm-.486 13.712v-3.962H9.363a5.51 5.51 0 00-5.279 3.976l-.01.039-1.825 6.539V11.04v-.011c0-.633.152-1.23.422-1.758l-.01.022.014-.029c.784-1.711 2.48-2.878 4.449-2.88H10.9V2.395l6.038 6.038z"/><path d="M15.512.727h-2.035l7.705 7.705-7.67 7.67h1.973l7.701-7.701L15.512.727z"/></svg>
